src/images/messengers/whatsapp.svg

<svg width="24" height="24" viewBox="0 0 24 24" fill="none" xmlns="http://www.w3.org/2000/svg">
<g clip-path="url(#clip0_711_40368)">
<path d="M24 0.00012207H0V24.0001H24V0.00012207Z" fill="#1BD741"/>
<path d="M3.60742 20.4022L4.78301 16.2269C4.02704 14.9426 3.62901 13.4814 3.62901 11.9803C3.62901 7.35837 7.38923 3.59814 12.0112 3.59814C16.6331 3.59814 20.3933 7.35837 20.3933 11.9803C20.3933 16.6023 16.6331 20.3625 12.0112 20.3625C10.571 20.3625 9.1608 19.9938 7.91328 19.2938L3.60742 20.4022ZM8.13341 17.7689L8.38998 17.9256C9.47767 18.5896 10.7299 18.9406 12.0112 18.9406C15.8491 18.9406 18.9714 15.8182 18.9714 11.9803C18.9714 8.14241 15.8491 5.02004 12.0112 5.02004C8.17327 5.02004 5.0509 8.14241 5.0509 11.9803C5.0509 13.3176 5.43097 14.6162 6.14992 15.7357L6.32271 16.0048L5.64573 18.4093L8.13341 17.7689Z" fill="white"/>
<path d="M9.65671 8.07897L9.11281 8.04933C8.94197 8.04 8.7744 8.09709 8.64527 8.20926C8.38159 8.43824 7.95997 8.88092 7.83047 9.45779C7.63736 10.3179 7.9358 11.3712 8.7082 12.4244C9.4806 13.4777 10.92 15.1629 13.4654 15.8826C14.2856 16.1146 14.9308 15.9582 15.4286 15.6398C15.8229 15.3876 16.0947 14.9827 16.1927 14.5251L16.2795 14.1195C16.3071 13.9906 16.2416 13.8598 16.1219 13.8046L14.2837 12.9573C14.1644 12.9023 14.0229 12.9371 13.9426 13.0411L13.221 13.9766C13.1665 14.0472 13.0731 14.0753 12.9889 14.0457C12.4947 13.872 10.8393 13.1787 9.93097 11.429C9.89158 11.3531 9.90138 11.261 9.95725 11.1963L10.6469 10.3985C10.7174 10.317 10.7352 10.2024 10.6928 10.1034L9.90048 8.24965C9.8583 8.15096 9.76377 8.08482 9.65671 8.07897Z" fill="white"/>
</g>
<defs>
<clipPath id="clip0_711_40368">
<rect y="0.00012207" width="24" height="24" rx="12" fill="white"/>
</clipPath>
</defs>
</svg>

<svg width="24" height="24" fill="none" xmlns="http://www.w3.org/2000/svg"><g clip-path="url(#a)"><path d="M24 0H0v24h24V0Z" fill="#1BD741"/><path d="m3.607 20.402 1.176-4.175a8.356 8.356 0 0 1-1.154-4.247c0-4.622 3.76-8.382 8.382-8.382s8.382 3.76 8.382 8.382-3.76 8.383-8.382 8.383c-1.44 0-2.85-.37-4.098-1.07l-4.306 1.11Zm4.526-2.633.257.157a6.946 6.946 0 0 0 3.621 1.015 6.968 6.968 0 0 0 6.96-6.96 6.968 6.968 0 0 0-6.96-6.961 6.968 6.968 0 0 0-6.96 6.96c0 1.338.38 2.636 1.099 3.756l.173.269-.677 2.404 2.487-.64Z" fill="#fff"/><path d="m9.657 8.079-.544-.03a.658.658 0 0 0-.468.16c-.263.23-.685.672-.815 1.249-.193.86.106 1.913.878 2.966.773 1.054 2.212 2.739 4.757 3.459.82.232 1.466.075 1.964-.243.394-.252.666-.657.764-1.115l.086-.405a.282.282 0 0 0-.157-.315l-1.838-.848a.282.282 0 0 0-.341.084l-.722.936a.207.207 0 0 1-.232.069c-.494-.174-2.15-.867-3.058-2.617a.209.209 0 0 1 .026-.233l.69-.797a.282.282 0 0 0 .046-.296L9.9 8.25a.282.282 0 0 0-.243-.171Z" fill="#fff"/></g><defs><clipPath id="a"><rect width="24" height="24" rx="12" fill="#fff"/></clipPath></defs></svg>
